X:29
T: Anyám, anyám, édesanyám!
O: Józseffalva (Radaucz), 1932
Q: "Andante" 1/4=126
L:1/4
K:Ab
B/c/c/B/ | c d/c/ | B z |
A/B/A/G/ | A B/A/ | G z |
A/B/B/G/| A B/A/ | F z |
F/A/G/F/ | G A/G/ | F z |

